X: 4127
T: BONNIE CHARLIE
R: Strathspey.
%R: strathspey
B: James Kerr "Merry Melodies" v.4 p.16 #127
Z: 2016 John Chambers <jc:trillian.mit.edu>
M: C
L: 1/8
K: G
|:\
G>AB>G (E<G)D2 | d>ed>B B<A A<B |\
G>AB>G (E<G)D2 | d>e d<B A2 G2 ::\
(B<d) d>d (B<d) d2 | g>fe>d e/d/c/B/ AB |\
G>AB>G (E<G)D2 | c<e d>B A2 G2 :|

%%sep 1 1 500
%%sep 1 1 500

